X:1
M:4/4
K:D
D2 |A4|Bc dd/2B/2|GG F2|GF DF|DF DG|F/2A3/2 AF|
FE FD|D3/2G/2 GA|Bc AA|BA G2|A3/2B/2 GG|E2 D2|
B3/2A/2 cA|AB c3/2A/2|BG Bc|d3/2e/2 dc|AG EG|
A2 G2|G3/2G/2 AF|EF EF|G2 D2|D3/2F/2 GA|F2 E2|\
G3/2A/2 AG|G4|G3:|